!!!SOCIAL_FUNCTION:	initiation songs of the first and second degrees
!!!PDT:	1909
!!!OTL: No_5_My_Pan_of_Food.krn
!!!REG: Great_Lakes
!!!LANG: Non-Tone
!!!LING_GROUP: Algonquin
**kern	**kern
*staff2	*staff1
=1-	=1-
*clefF4	*clefF4
*k[f#]	*k[f#]
*M3/4	*M3/4
8GG/L	4d\
8GG/J	.
8GG/L	4d\
8GG/J	.
8GG/L	4d\
8GG/J	.
=2||	=2||
*M2/4	*M2/4
2r	4d\
.	4d\
=3	=3
2r	(4d\
.	12d\L)
.	12d\
.	12d\J
=4	=4
2r	8.d\L
.	16d\Jk
.	4d\
=5	=5
2r	4B\
.	4d\
=6	=6
2r	4B\
.	8G\L
.	8G\J
=7	=7
2r	4G\
.	8B\L
.	8B\J
=8!|:	=8!|:
*M3/4	*M3/4
2.r	4B\
.	4G\
.	4G\
=9	=9
2.r	2.G\
=10	=10
2.r	2.G\
=11	=11
2.r	8E\L
.	8G\J
.	4G\
.	8G\L
.	8G\J
=12	=12
2.r	2G\
.	8B\L
.	8B\J
=13	=13
2.r	4B\
.	4d\
.	4d\
=14	=14
2.r	2.B\
=15	=15
2.r	2.B\
=16	=16
2.r	8B\L
.	8B\J
.	4A\
.	8A\L
.	8G\J
=17	=17
2.r	2G\
.	8B\L
.	8B\J
=18	=18
2.r	4B\
.	4B\
.	4G\
=19	=19
2.r	2.G\
=20	=20
2.r	2.G\
=21	=21
2.r	8E\L
.	8E\J
.	4E\
.	8D\L
.	8D\J
=22	=22
2.r	2D\
.	8E\L
.	8E\J
=23	=23
2.r	4E\
.	4E\
.	4D\
=24	=24
2.r	2.D\
=25	=25
2.r	2.D\
=26	=26
2.r	8BB/L
.	8BB/J
.	4BB/
.	8GG/L
.	8GG/J
=27	=27
2.r	2GG/
.	8BB/L
.	8BB/J
=28	=28
2.r	4BB/
.	4GG/
.	4GG/
=29	=29
2.r	2.GG/
=30	=30
2.r	2.GG/
=31	=31
2.r	8.d\
.	8.d\
.	8.d\
.	8.d\
=32	=32
2.r	2.d\
=33	=33
2.r	2.d\
=34	=34
2.r	8B\L
.	8d\J
.	4B\
.	8G\L
.	8G\J
=35	=35
2.r	2G\
.	8B\L
.	8B\J
==:|!	==:|!
*-	*-
